X:16626
T:The Dark Girl Dressed in Blue
M:2/2
L:1/8
S:John McKenna
R:polka
K:D
F2A2 A2d2|BcdB A3F|G2B2 ABAF|B2E2 GFED|
F2A2 A2d2|BcdB A3F|G2B2 ABAG|F2D2 D4:||
||:F2A2 ABde|f2d2 e2d2|BcdB ABAF|B2E2 GFED|
F2A2 ABde|f2d2 e2d2|BcdB ABAG|F2D2 D4:||
